X:1
T: Big Kirsty
C:
R:Strathspey
Q:128
K:Em
M:4/4
L:1/16
|:B2|e3f e3e d3B ((3B2c2d2)|c3A ((3A2B2c2) d3B B3d|e3f g3e d3B ((3B2c2d2)|c3A B3F E6:|
|:D2|G3A B3c d3B ((3B2c2d2)|c3A ((3A2B2c2) d3B B3A|G3A B3c d3B ((3B2c2d2)|1c3A B3F E6:|2c3A B3^d e6|
|:f2|g4 f3e dB3 ((3B2c2d2)|cA3 ((3A2B2c2) dB3 Bd3|g4 f3e dB3 ((3B2c2d2)|c3A B3F E6:|
|:D2|G3A B3c dB3 ((3B2c2d2)|cA3 ((3A2B2c2) dB3 B3A|G3A B3c dB3 ((3B2c2d2)|c3A B3F E6:|
